img/reticencias.svg

<svg id="Layer_1" data-name="Layer 1" xmlns="http://www.w3.org/2000/svg" viewBox="0 0 471 109"><defs><style>.cls-1{fill:#efa303;}</style></defs><title>reticencias</title><path class="cls-1" d="M61.5,26.67A36.5,36.5,0,1,1,25,63.17a36.54,36.54,0,0,1,36.5-36.5m0-18A54.5,54.5,0,1,0,116,63.17,54.5,54.5,0,0,0,61.5,8.67Z" transform="translate(-7 -8.67)"/><path class="cls-1" d="M242.5,26.67A36.5,36.5,0,1,1,206,63.17a36.54,36.54,0,0,1,36.5-36.5m0-18A54.5,54.5,0,1,0,297,63.17a54.5,54.5,0,0,0-54.5-54.5Z" transform="translate(-7 -8.67)"/><path class="cls-1" d="M423.5,26.67A36.5,36.5,0,1,1,387,63.17a36.54,36.54,0,0,1,36.5-36.5m0-18A54.5,54.5,0,1,0,478,63.17a54.5,54.5,0,0,0-54.5-54.5Z" transform="translate(-7 -8.67)"/></svg>

<?xml version="1.0" encoding="utf-8"?>
<!-- Generator: Adobe Illustrator 22.0.1, SVG Export Plug-In . SVG Version: 6.00 Build 0)  -->
<svg version="1.1" id="Layer_1" xmlns="http://www.w3.org/2000/svg" xmlns:xlink="http://www.w3.org/1999/xlink" x="0px" y="0px"
	 viewBox="0 0 491 125" style="enable-background:new 0 0 491 125;" xml:space="preserve">
<style type="text/css">
	.st0{fill:#98660D;}
</style>
<g>
	<path class="st0" d="M61.5,26.7C81.6,26.7,98,43,98,63.2S81.6,99.7,61.5,99.7S25,83.3,25,63.2S41.4,26.7,61.5,26.7 M61.5,8.7
		C31.4,8.7,7,33.1,7,63.2s24.4,54.5,54.5,54.5S116,93.3,116,63.2S91.6,8.7,61.5,8.7L61.5,8.7z"/>
</g>
<g>
	<path class="st0" d="M242.5,26.7c20.1,0,36.5,16.4,36.5,36.5s-16.4,36.5-36.5,36.5S206,83.3,206,63.2S222.4,26.7,242.5,26.7
		 M242.5,8.7c-30.1,0-54.5,24.4-54.5,54.5s24.4,54.5,54.5,54.5S297,93.3,297,63.2S272.6,8.7,242.5,8.7L242.5,8.7z"/>
</g>
<g>
	<path class="st0" d="M423.5,26.7c20.1,0,36.5,16.4,36.5,36.5s-16.4,36.5-36.5,36.5S387,83.3,387,63.2S403.4,26.7,423.5,26.7
		 M423.5,8.7c-30.1,0-54.5,24.4-54.5,54.5s24.4,54.5,54.5,54.5S478,93.3,478,63.2S453.6,8.7,423.5,8.7L423.5,8.7z"/>
</g>
</svg>
